svg/fluentui-system-icons/ic_fluent_arrow_repeat_all_20_filled.svg

<svg width="20" height="20" viewBox="0 0 20 20" fill="none" xmlns="http://www.w3.org/2000/svg">
<path d="M15.7505 6.01C15.9298 6.01 16.0944 6.07292 16.2234 6.17788C17.3113 7.09184 18.0029 8.46516 18.0029 10C18.0029 12.6888 15.8806 14.8818 13.2198 14.9954L13.0029 15H8.56105L9.7808 16.2197C10.0471 16.4859 10.0713 16.9026 9.85341 17.1962L9.7808 17.2803C9.51453 17.5466 9.09787 17.5708 8.80425 17.3529L8.72014 17.2803L6.22014 14.7803C5.95387 14.5141 5.92966 14.0974 6.14752 13.8038L6.22014 13.7197L8.72014 11.2197C9.01303 10.9268 9.4879 10.9268 9.7808 11.2197C10.0471 11.4859 10.0713 11.9026 9.85341 12.1962L9.7808 12.2803L8.56105 13.5H13.0029C14.8714 13.5 16.398 12.0357 16.4977 10.192L16.5029 10C16.5029 8.91885 16.0127 7.95219 15.2424 7.31017C15.094 7.17538 15.0005 6.97861 15.0005 6.76C15.0005 6.34579 15.3363 6.01 15.7505 6.01ZM10.2201 2.71967C10.4864 2.4534 10.9031 2.4292 11.1967 2.64705L11.2808 2.71967L13.7808 5.21967L13.8534 5.30379C14.0471 5.56478 14.0495 5.92299 13.8606 6.18638L13.7808 6.28033L11.2808 8.78033L11.1967 8.85295C10.9357 9.0466 10.5775 9.04899 10.3141 8.86012L10.2201 8.78033L10.1475 8.69621C9.95387 8.43522 9.95148 8.07701 10.1403 7.81362L10.2201 7.71967L11.439 6.5H6.99805C5.12948 6.5 3.60292 7.96428 3.50323 9.80796L3.49805 10C3.49805 11.0831 3.99006 12.0514 4.76278 12.6934C4.90897 12.8289 5.00047 13.0238 5.00047 13.24C5.00047 13.6542 4.66468 13.99 4.25047 13.99C4.05918 13.99 3.88462 13.9184 3.75213 13.8005C2.67913 12.8872 1.99805 11.5232 1.99805 10C1.99805 7.31125 4.12035 5.11818 6.78116 5.00462L6.99805 5H11.439L10.2201 3.78033L10.1475 3.69621C9.92966 3.4026 9.95387 2.98594 10.2201 2.71967Z" fill="#212121"/>
</svg>

<svg xmlns="http://www.w3.org/2000/svg" width="20" height="20"><path d="M15.75 6.01c.18 0 .344.063.473.168a5 5 0 0 1-3.004 8.818l-.216.004H8.56l1.22 1.22a.75.75 0 0 1 .072.976l-.072.084a.75.75 0 0 1-.977.073l-.084-.073-2.5-2.5a.75.75 0 0 1-.072-.976l.072-.084 2.5-2.5a.75.75 0 0 1 1.133.976l-.072.084-1.22 1.22h4.442a3.5 3.5 0 0 0 3.495-3.308l.005-.192c0-1.081-.49-2.048-1.26-2.69a.75.75 0 0 1 .508-1.3Zm-5.53-3.29a.75.75 0 0 1 .977-.073l.084.073 2.5 2.5.072.084a.75.75 0 0 1 .008.882l-.08.094-2.5 2.5-.084.073a.75.75 0 0 1-.883.007l-.094-.08-.072-.084a.75.75 0 0 1-.008-.882l.08-.094 1.22-1.22H7a3.5 3.5 0 0 0-3.496 3.308L3.498 10c0 1.083.492 2.051 1.265 2.693a.75.75 0 0 1-1.01 1.107 5 5 0 0 1 3.029-8.796L6.997 5h4.441L10.22 3.78l-.072-.084a.75.75 0 0 1 .072-.976Z"/></svg>
